X:2
T: Old as the Hills (Brian finnegan version)
M: 6/8
L: 1/8
R: jig
K:Amaj
A2B cBA|d2e fga|A2B cBA|d=GA B3|
ecA Ace|d2e fga|e2e dBG|ABA A2c:|
c2e ecA|cea ecA|c2e ecA|Bcd dcB|
c2e ecA|cde fga|e2e dBG|ABA A3:|
